X: 5179
T: Brisk Bob
R: strathspey
M: 4/4
K: Bminor
c|:dBfB FBBc|dcBd ecAc|dBfB FBBd|egfe dBBc|
dBfB FBBc|dcBd ecAc|Bdce dfeg|1 fedc dBBc:|2 fedc dBBf||
|:bffe fdAc|dfed cAAf|bffe fdAc|dfed cABf|
bffe fdAc|dfed cAAc|Bdce dfeg|1 fedc dBBf:|2 fedc dBB||

